X:1
T:Peter Street -- Reel
R:reel
B:Ryan's Mammoth Collection
N: 382
Z: Contributed by Ray Davies,  ray:davies99.freeserve.co.uk
M:2/4
L:1/16
K:A
vA2((3cBA) eA((3cBA) | eAaA gAfA | eA((3cBA) eAfA | BEcE dEBE |
A2((3cBA) ec((3cBA) | eAaA gAfA | efec eaec | BABc A4  |]
E2((3GFE) BE((3GFE) | BEdE cEBE | A2((3cBA) eA((3cBA) |
eAaA gAfA | edec agaf | edec agaf | ecag fedc | BAGF EFGE |]
